assets/icons/qvision/power.svg

<svg xmlns="http://www.w3.org/2000/svg" height="24" viewBox="0 0 24 24" width="24"><path d="M0 0h24v24H0z" fill="none"/><path d="M16.01 7L16 3h-2v4h-4V3H8v4h-.01C7 6.99 6 7.99 6 8.99v5.49L9.5 18v3h5v-3l3.5-3.51v-5.5c0-1-1-2-1.99-1.99z"/></svg>

<svg width="24" height="24" viewBox="0 0 24 24" fill="none" xmlns="http://www.w3.org/2000/svg">
<g clip-path="url(#clip0_147_6010)">
<path d="M16.01 7L16 3H14V7H10V3H8V7H7.99C7 6.99 6 7.99 6 8.99V14.48L9.5 18V21H14.5V18L18 14.49V8.99C18 7.99 17 6.99 16.01 7Z" fill="#323232"/>
</g>
<defs>
<clipPath id="clip0_147_6010">
<rect width="24" height="24" fill="white"/>
</clipPath>
</defs>
</svg>
